static/images/mobile/copyright/wikipedia-tagline-pi.svg

<svg width="120" height="18" viewBox="0 0 120 18" fill="none" xmlns="http://www.w3.org/2000/svg">
<path fill-rule="evenodd" clip-rule="evenodd" d="M26.6588 4.31021H24.891C24.6419 3.81004 24.5173 3.29764 24.5173 2.77295C24.5173 2.18452 24.6972 1.74321 25.0571 1.44901C25.417 1.14989 25.9588 1.00032 26.6825 1.00032C27.6395 1.00032 28.5471 1.27737 29.4053 1.83148C30.2635 2.38068 31.0702 3.20692 31.8256 4.31021H26.8308H26.6588ZM33.7713 4.31021H32.229C31.4815 2.87347 30.6313 1.79715 29.6782 1.08122C28.7291 0.360413 27.6791 0 26.5283 0C25.7966 0 25.1579 0.171616 24.6122 0.514877C23.9241 0.951294 23.58 1.58139 23.58 2.40518C23.58 3.1015 23.8212 3.7365 24.3037 4.31021H22.7792V5.35466H24.102V12.7615L24.7664 13.703H25.0334V5.35466H26.6588H26.8308H31.2087V7.56862H27.9164C27.7226 7.56862 27.5525 7.65443 27.4062 7.82605C27.2599 7.99277 27.1867 8.21344 27.1867 8.48804C27.1867 8.88033 27.3627 9.40991 27.7147 10.0768C28.0706 10.7437 28.3375 11.0771 28.5155 11.0771C28.6658 11.0771 28.7409 10.9668 28.7409 10.7461C28.7409 10.5843 28.735 10.4323 28.7231 10.2901C28.6954 10.04 28.6816 9.812 28.6816 9.60603C28.6816 9.19905 28.7113 8.93181 28.7706 8.80431C28.8339 8.67192 29.0059 8.60573 29.2867 8.60573H31.2087V12.7026L32.0154 13.703H32.14V5.35466H33.7713H33.9433H35.5272V8.76018H34.673C34.4871 8.76018 34.3942 8.83618 34.3942 8.9882C34.3942 9.22847 34.6611 9.70656 35.195 10.4225C35.7329 11.1335 36.0769 11.489 36.2272 11.489C36.3814 11.489 36.4585 11.3419 36.4585 11.0477V9.79727H38.8966V12.7615L39.3134 13.3658C39.2893 13.3651 39.2651 13.3647 39.2407 13.3647C39.0074 13.3647 38.8274 13.3793 38.7009 13.4088L38.9085 14.4385C39.0311 14.414 39.1932 14.4018 39.3949 14.4018C39.7785 14.4018 40.1048 14.5023 40.3737 14.7033C40.6426 14.9093 40.7771 15.152 40.7771 15.4315C40.7771 15.7747 40.6565 16.0322 40.4152 16.2038C40.1701 16.3803 39.8023 16.4686 39.3119 16.4686C38.6712 16.4686 38.0938 16.2921 37.5797 15.939C37.0656 15.5909 36.6128 15.0686 36.2213 14.3723H35.8475C36.33 15.3236 36.8698 16.0543 37.467 16.5642C38.0642 17.0742 38.6574 17.3292 39.2466 17.3292C39.8042 17.3292 40.2531 17.1575 40.5932 16.8143C40.9333 16.476 41.1034 16.0077 41.1034 15.4094C41.1034 14.8014 40.9274 14.3086 40.5754 13.931C40.3591 13.7016 40.11 13.5418 39.828 13.4518V5.35466H41.4593H41.6313H47.1719V7.08318C46.5391 7.08318 45.9182 7.44849 45.3092 8.17911C44.6053 7.3455 43.9587 6.9287 43.3694 6.9287C43.0016 6.9287 42.6912 7.08562 42.4381 7.39946C42.1889 7.71327 42.0644 8.10802 42.0644 8.58366C42.0644 8.84845 42.1276 9.1353 42.2542 9.44423C42.3807 9.75314 42.62 10.1234 42.972 10.5549L44.6567 12.6438L44.8584 12.4158C43.9646 11.3321 43.4149 10.5966 43.2093 10.2092C43.0076 9.81689 42.9067 9.42952 42.9067 9.04704C42.9067 8.69398 43.0175 8.3875 43.2389 8.12761C43.4643 7.86772 43.7056 7.73779 43.9626 7.73779C44.3502 7.73779 44.7378 7.96825 45.1253 8.42918C44.8762 8.78714 44.6943 9.07156 44.5796 9.28241L45.2677 10.1283C45.8253 9.24074 46.2307 8.66211 46.4838 8.39241C46.7408 8.11778 46.9702 7.94371 47.1719 7.87018V12.7468L47.8422 13.6882H48.0914V5.35466H49.7168H49.8888H54.2667V7.56862H50.9744C50.7806 7.56862 50.6105 7.65443 50.4642 7.82605C50.3179 7.99277 50.2447 8.21344 50.2447 8.48804C50.2447 8.88033 50.4207 9.40991 50.7727 10.0768C51.1286 10.7437 51.3955 11.0771 51.5735 11.0771C51.7238 11.0771 51.7989 10.9668 51.7989 10.7461C51.7989 10.5843 51.793 10.4323 51.7811 10.2901C51.7534 10.04 51.7396 9.812 51.7396 9.60603C51.7396 9.19905 51.7692 8.93181 51.8286 8.80431C51.8918 8.67192 52.0639 8.60573 52.3447 8.60573H54.2666V12.7026L55.0734 13.703H55.198V5.35466H56.8293H57.0013H58.1522V12.7026L58.864 13.725H59.0835V5.35466H60.8809V4.31021H57.0013H56.8293H49.8888H49.7168H47.8573L46.727 2.4052C46.3117 1.70398 45.9756 1.21362 45.7185 0.934128C45.4575 0.654617 45.1708 0.443771 44.8584 0.301575C44.542 0.154465 44.2098 0.0809174 43.8618 0.0809174H43.2508L43.6304 1.33131H44.4372C44.8999 1.33131 45.2914 1.45146 45.6118 1.69173C45.9281 1.93201 46.2504 2.31693 46.5787 2.84651L47.4855 4.31021H41.6313H41.4593H33.9433H33.7713ZM32.6324 0.772308L31.8375 1.74321L32.6324 2.72882L33.4273 1.74321L32.6324 0.772308ZM5.78971 5.35466H7.42103H7.59306H11.2294V7.91431C10.7074 7.12975 10.1063 6.73747 9.42607 6.73747C9.07015 6.73747 8.75772 6.88948 8.4888 7.1935C8.22384 7.49261 8.09135 7.90451 8.09135 8.42918C8.09135 9.02251 8.2357 9.51286 8.5244 9.90025C8.81309 10.2827 9.20065 10.474 9.68708 10.474C10.1735 10.474 10.6876 10.1847 11.2294 9.60603V12.7468L11.9235 13.725H12.1608V8.79697C12.6037 8.31151 13.0229 8.06879 13.4184 8.06879C13.6952 8.06879 13.9028 8.17911 14.0412 8.39978C14.1836 8.62042 14.2548 8.95142 14.2548 9.39275C14.2548 9.99098 14.0689 10.6897 13.6972 11.489L14.3616 12.2981C14.6938 11.5724 14.8599 10.881 14.8599 10.2239C14.8599 9.39029 14.6582 8.71605 14.2548 8.20119C13.8554 7.68631 13.4105 7.42886 12.9201 7.42886C12.6314 7.42886 12.3783 7.50732 12.1608 7.66425V5.35466H15.5242H15.6963H16.8471V12.7026L17.5589 13.725H17.7784V5.35466H19.5759V4.31021H15.6963H15.5242H7.59306H7.42103H0V5.35466H1.24574V9.53249C1.24574 10.0327 1.29319 10.3833 1.38811 10.5843C1.48302 10.7854 1.6946 11.0036 2.02284 11.2389L4.92362 13.3205C5.38633 13.6539 5.73434 13.9604 5.96767 14.2399C6.201 14.5194 6.31766 14.7719 6.31766 14.9975C6.31766 15.1642 6.25637 15.3113 6.13377 15.4388C6.01513 15.5712 5.86485 15.6472 5.68293 15.6668L6.02699 16.2847C6.68743 16.1915 7.01765 15.8703 7.01765 15.3211C7.01765 15.0073 6.90098 14.6959 6.66766 14.387C6.43433 14.083 6.02304 13.7201 5.43378 13.2984L2.76435 11.3787C2.40842 11.1237 2.22057 10.9545 2.2008 10.8712C2.18498 10.7878 2.17707 10.675 2.17707 10.5328V5.35466H4.85837V9.01027C4.85837 9.21622 4.63691 9.59378 4.19398 10.143L4.82871 10.9374C5.46938 10.2067 5.78971 9.63547 5.78971 9.22357V5.35466ZM11.2294 8.26738V8.40714C10.3989 9.35841 9.75629 9.83406 9.3015 9.83406C9.05631 9.83406 8.86252 9.7507 8.72015 9.58398C8.58174 9.41235 8.51253 9.19415 8.51253 8.92935C8.51253 8.62534 8.64699 8.35564 8.91591 8.12027C9.18879 7.87999 9.57042 7.75986 10.0608 7.75986C10.5354 7.75986 10.9249 7.92903 11.2294 8.26738ZM38.8966 8.76018H36.4585V5.35466H38.8966V8.76018ZM67.9638 4.31021H66.1961C65.9469 3.81004 65.8223 3.29764 65.8223 2.77295C65.8223 2.18452 66.0023 1.74321 66.3622 1.44901C66.722 1.14989 67.2638 1.00032 67.9875 1.00032C68.9446 1.00032 69.8522 1.27737 70.7104 1.83148C71.5685 2.38068 72.3753 3.20692 73.1307 4.31021H68.1358H67.9638ZM75.0764 4.31021H73.534C72.7866 2.87347 71.9363 1.79715 70.9832 1.08122C70.0341 0.360413 68.9841 0 67.8333 0C67.1017 0 66.463 0.171616 65.9172 0.514877C65.2291 0.951294 64.8851 1.58139 64.8851 2.40518C64.8851 3.1015 65.1263 3.7365 65.6088 4.31021H64.0842V5.35466H65.4071V12.7615L66.0715 13.703H66.3384V5.35466H67.9638H68.1358H72.5137V7.56862H69.2214C69.0276 7.56862 68.8576 7.65443 68.7113 7.82605C68.5649 7.99277 68.4918 8.21344 68.4918 8.48804C68.4918 8.88033 68.6678 9.40991 69.0197 10.0768C69.3757 10.7437 69.6426 11.0771 69.8206 11.0771C69.9708 11.0771 70.046 10.9668 70.046 10.7461C70.046 10.5843 70.04 10.4323 70.0282 10.2901C70.0005 10.04 69.9867 9.812 69.9867 9.60603C69.9867 9.19905 70.0163 8.93181 70.0756 8.80431C70.1389 8.67192 70.3109 8.60573 70.5917 8.60573H72.5137V12.7026L73.3205 13.703H73.4451V5.35466H75.0764H75.2484H76.3992V12.7615L77.0636 13.703H77.3306V5.35466H78.956H79.128H80.7119L80.6525 7.87018C80.5695 7.84567 80.4548 7.75986 80.3085 7.61275C80.178 7.48036 80.0593 7.41417 79.9525 7.41417C79.7034 7.41417 79.5788 7.65689 79.5788 8.14233C79.5788 8.63269 79.6777 9.07892 79.8754 9.481C80.0732 9.8831 80.3895 10.398 80.8246 11.0256C81.2596 11.6484 81.7045 12.1069 82.1593 12.4011C82.618 12.6953 83.1302 12.8424 83.6957 12.8424C84.2217 12.8424 84.7536 12.6046 85.2914 12.1289V12.7026L86.0092 13.703H86.2227V5.35466H87.8541H88.0261H93.5667V7.08318C92.9339 7.08318 92.313 7.44849 91.704 8.17911C91.0001 7.3455 90.3535 6.9287 89.7642 6.9287C89.3964 6.9287 89.086 7.08562 88.8329 7.39946C88.5837 7.71327 88.4592 8.10802 88.4592 8.58366C88.4592 8.84845 88.5224 9.1353 88.649 9.44423C88.7755 9.75314 89.0148 10.1234 89.3668 10.5549L91.0515 12.6438L91.2532 12.4158C90.3594 11.3321 89.8097 10.5966 89.604 10.2092C89.4023 9.81689 89.3015 9.42952 89.3015 9.04704C89.3015 8.69398 89.4122 8.3875 89.6337 8.12761C89.8591 7.86772 90.1004 7.73779 90.3574 7.73779C90.745 7.73779 91.1325 7.96825 91.5201 8.42918C91.271 8.78714 91.089 9.07156 90.9743 9.28241L91.6625 10.1283C92.2201 9.24074 92.6254 8.66211 92.8785 8.39241C93.1356 8.11778 93.365 7.94371 93.5667 7.87018V12.7468L94.237 13.6882H94.4861V5.35466H96.1115H96.2836H99.9199V7.91431C99.3979 7.12975 98.7968 6.73747 98.1166 6.73747C97.7606 6.73747 97.4482 6.88948 97.1793 7.1935C96.9143 7.49261 96.7818 7.90451 96.7818 8.42918C96.7818 9.02251 96.9262 9.51286 97.2149 9.90025C97.5036 10.2827 97.8911 10.474 98.3776 10.474C98.864 10.474 99.3781 10.1847 99.9199 9.60603V12.7468L100.614 13.725H100.851V8.79697C101.294 8.31151 101.713 8.06879 102.109 8.06879C102.386 8.06879 102.593 8.17911 102.732 8.39978C102.874 8.62042 102.945 8.95142 102.945 9.39275C102.945 9.99098 102.759 10.6897 102.388 11.489L103.052 12.2981C103.384 11.5724 103.55 10.881 103.55 10.2239C103.55 9.39029 103.349 8.71605 102.945 8.20119C102.546 7.68631 102.101 7.42886 101.611 7.42886C101.322 7.42886 101.069 7.50732 100.851 7.66425V5.35466L104.215 5.35468L104.387 5.35466L105.538 5.35468V12.7026L106.249 13.725H106.469V5.35468L108.094 5.35466L108.266 5.35468L110.004 5.35466C110.171 5.76656 110.254 6.15395 110.254 6.51682C110.254 7.11014 110.161 7.57597 109.975 7.91431C109.694 7.7476 109.445 7.66425 109.227 7.66425C109.041 7.66425 108.901 7.72798 108.806 7.85547C108.715 7.97806 108.67 8.1644 108.67 8.41447C108.67 8.84108 108.883 9.42461 109.31 10.1651C109.524 10.5328 109.828 10.9987 110.224 11.5626C110.619 12.1216 111.106 12.7786 111.683 13.5338L111.855 13.2837C111.574 12.9258 111.266 12.5089 110.93 12.0333C110.598 11.5576 110.238 11.0256 109.85 10.4372C110.103 10.1381 110.352 9.6747 110.598 9.04704C111.163 9.31674 111.66 9.45158 112.087 9.45158C112.395 9.45158 112.83 9.27751 113.392 8.92935V12.7835L114.056 13.725H114.323V5.35466L115.948 5.35468L116.12 5.35466L117.271 5.35468V12.7026L117.983 13.725H118.203V5.35468H120V4.31021H117.965L116.838 2.4052C116.292 1.48332 115.822 0.865479 115.426 0.551651C115.031 0.237823 114.372 0.0809174 113.451 0.0809174H112.81L113.19 1.33131H113.997C114.677 1.33131 115.195 1.42203 115.551 1.60345C115.907 1.77998 116.287 2.19434 116.69 2.84651L117.592 4.31021H116.12H115.948H108.266H108.094H106.232L105.105 2.4052C104.559 1.48332 104.088 0.865479 103.693 0.551651C103.297 0.237823 102.639 0.0809174 101.717 0.0809174H101.077L101.456 1.33131H102.263C102.943 1.33131 103.461 1.42203 103.817 1.60345C104.173 1.77998 104.553 2.19434 104.956 2.84651L105.858 4.31021H104.387H104.215H96.2836H96.1115H88.0261H87.8541H84.5262C83.7787 2.87347 82.9285 1.79715 81.9754 1.08122C81.0263 0.360413 79.9763 0 78.8254 0C78.0938 0 77.4551 0.171616 76.9094 0.514877C76.2213 0.951294 75.8772 1.58139 75.8772 2.40518C75.8772 3.1015 76.1184 3.7365 76.6009 4.31021H75.2484H75.0764ZM79.128 4.31021H78.956H77.1882C76.939 3.81004 76.8145 3.29764 76.8145 2.77295C76.8145 2.18452 76.9944 1.74321 77.3543 1.44901C77.7142 1.14989 78.256 1.00032 78.9797 1.00032C79.9367 1.00032 80.8443 1.27737 81.7025 1.83148C82.5607 2.38068 83.3674 3.20692 84.1228 4.31021H79.128ZM85.2914 5.35466H81.4593L81.3347 7.75986C81.3189 8.04916 81.2734 8.35074 81.1983 8.66457C81.1271 8.97839 80.9294 9.47119 80.6051 10.143C81.0164 10.8491 81.4079 11.3468 81.7796 11.6361C82.1553 11.9254 82.5864 12.0701 83.0728 12.0701C83.7372 12.0701 84.4767 11.6337 85.2914 10.7608V9.6796C84.6112 10.3612 84.0833 10.702 83.7076 10.702C83.316 10.702 82.9364 10.4593 82.5686 9.97382C82.2008 9.48346 82.0169 8.99554 82.0169 8.51009C82.0169 7.95599 82.1889 7.51959 82.533 7.20087C82.881 6.87723 83.3042 6.71541 83.8025 6.71541C84.277 6.71541 84.7733 7.03659 85.2914 7.67896V5.35466ZM85.2914 8.20119V8.02464C84.7931 7.75496 84.3739 7.6201 84.0338 7.6201C83.666 7.6201 83.3121 7.75006 82.972 8.00995C82.6358 8.26494 82.4678 8.5665 82.4678 8.91464C82.4678 9.15982 82.5508 9.36823 82.7169 9.53984C82.8869 9.71146 83.0827 9.79727 83.3042 9.79727C83.6206 9.79727 84.0299 9.64037 84.5321 9.32654C85.0383 9.00781 85.2914 8.63269 85.2914 8.20119ZM99.9199 8.40714V8.26738C99.6154 7.92903 99.2259 7.75986 98.7513 7.75986C98.2609 7.75986 97.8793 7.87999 97.6064 8.12027C97.3375 8.35564 97.203 8.62534 97.203 8.92935C97.203 9.19415 97.2722 9.41235 97.4106 9.58398C97.553 9.7507 97.7468 9.83406 97.992 9.83406C98.4468 9.83406 99.0894 9.35841 99.9199 8.40714ZM113.392 5.35466H110.764C110.902 5.8205 110.971 6.32066 110.971 6.85515C110.971 7.24254 110.918 7.71573 110.811 8.27473C111.385 8.5199 111.851 8.6425 112.211 8.6425C112.571 8.6425 112.858 8.52971 113.071 8.30415C113.285 8.07368 113.392 7.8138 113.392 7.52448V5.35466Z" fill="black"/>
</svg>

<svg xmlns="http://www.w3.org/2000/svg" width="120" height="18" fill="none"><path fill="#000" fill-rule="evenodd" d="M26.659 4.31H24.89a3.412 3.412 0 0 1-.374-1.537c0-.588.18-1.03.54-1.324.36-.3.902-.449 1.626-.449.957 0 1.864.277 2.722.831.858.55 1.665 1.376 2.42 2.48H26.66Zm7.112 0H32.23c-.747-1.437-1.598-2.513-2.55-3.229-.95-.72-2-1.081-3.15-1.081-.732 0-1.371.172-1.917.515-.688.436-1.032 1.066-1.032 1.89 0 .697.241 1.332.724 1.905h-1.525v1.045h1.323v7.406l.664.942h.267V5.355h6.176v2.214h-3.293c-.193 0-.364.085-.51.257-.146.167-.22.387-.22.662 0 .392.177.922.529 1.589.356.667.622 1 .8 1 .15 0 .226-.11.226-.33 0-.163-.006-.315-.018-.457a6.257 6.257 0 0 1-.041-.684c0-.407.03-.674.089-.802.063-.132.235-.198.516-.198h1.922v4.097l.806 1h.125V5.355h3.387V8.76h-.854c-.186 0-.279.076-.279.228 0 .24.267.719.801 1.434.538.711.882 1.067 1.032 1.067.154 0 .232-.147.232-.441v-1.25h2.438v2.963l.416.605-.072-.001a2.52 2.52 0 0 0-.54.044l.207 1.03a2.58 2.58 0 0 1 .487-.037c.383 0 .71.1.979.301.269.206.403.449.403.729 0 .343-.12.6-.362.772-.245.176-.613.265-1.103.265-.64 0-1.218-.177-1.732-.53-.514-.348-.967-.87-1.359-1.567h-.373c.482.952 1.022 1.682 1.619 2.192.597.51 1.19.765 1.78.765.557 0 1.006-.172 1.346-.515.34-.338.51-.806.51-1.405 0-.608-.176-1.1-.528-1.478a1.748 1.748 0 0 0-.747-.48V5.356h7.343v1.728c-.632 0-1.253.365-1.862 1.096-.704-.833-1.35-1.25-1.94-1.25-.367 0-.678.157-.93.47-.25.314-.375.709-.375 1.185 0 .264.064.551.19.86.127.31.366.68.718 1.11l1.685 2.09.201-.228c-.893-1.084-1.443-1.82-1.649-2.207a2.527 2.527 0 0 1-.302-1.162c0-.353.11-.66.332-.92.225-.26.467-.39.724-.39.387 0 .775.231 1.162.692-.249.358-.43.643-.545.853l.688.846c.557-.887.963-1.466 1.216-1.736.257-.274.486-.448.688-.522v4.877l.67.941h.25V5.355h6.175v2.214h-3.293c-.193 0-.363.085-.51.257-.146.167-.22.387-.22.662 0 .392.177.922.529 1.589.356.667.622 1 .8 1 .15 0 .226-.11.226-.33 0-.163-.006-.315-.018-.457a6.257 6.257 0 0 1-.041-.684c0-.407.03-.674.089-.802.063-.132.235-.198.516-.198h1.922v4.097l.806 1h.125V5.355H58.152v7.348l.712 1.022h.22v-8.37h1.797V4.31H47.857l-1.13-1.905c-.415-.701-.751-1.191-1.008-1.47a2.718 2.718 0 0 0-.86-.633 2.336 2.336 0 0 0-.997-.221h-.611l.38 1.25h.806c.463 0 .854.12 1.175.36.316.241.638.626.967 1.156l.907 1.463H33.77ZM32.632.772l-.794.971.794.986.795-.986-.795-.97ZM5.79 5.355h5.439v2.56c-.522-.785-1.123-1.178-1.803-1.178-.356 0-.668.152-.937.457-.265.299-.398.71-.398 1.235 0 .594.145 1.084.433 1.471.29.383.677.574 1.163.574.487 0 1-.29 1.542-.868v3.14l.695.979h.237V8.797c.443-.485.862-.728 1.257-.728.277 0 .485.11.623.33.143.221.214.552.214.994 0 .598-.186 1.297-.558 2.096l.665.81c.332-.727.498-1.418.498-2.075 0-.834-.202-1.508-.605-2.023-.4-.515-.845-.772-1.335-.772-.289 0-.542.078-.76.235v-2.31h4.687v7.349l.712 1.022h.22v-8.37h1.797V4.31H0v1.045h1.246v4.177c0 .5.047.851.142 1.052.095.201.307.42.635.655l2.9 2.081c.463.334.811.64 1.045.92.233.28.35.532.35.758a.618.618 0 0 1-.184.44.683.683 0 0 1-.451.229l.344.618c.66-.093.99-.415.99-.964 0-.314-.116-.625-.35-.934-.233-.304-.644-.667-1.233-1.089l-2.67-1.92c-.356-.254-.543-.424-.563-.507a1.9 1.9 0 0 1-.024-.338V5.355h2.681V9.01c0 .206-.221.584-.664 1.133l.635.794c.64-.73.96-1.302.96-1.713v-3.87Zm5.44 2.912v.14c-.831.951-1.474 1.427-1.928 1.427a.725.725 0 0 1-.582-.25c-.138-.172-.207-.39-.207-.655 0-.304.134-.573.403-.809.273-.24.654-.36 1.145-.36.474 0 .864.169 1.168.507Zm27.667.493h-2.438V5.355h2.438V8.76Zm29.067-4.45h-1.768a3.41 3.41 0 0 1-.374-1.537c0-.588.18-1.03.54-1.324.36-.3.902-.449 1.626-.449.957 0 1.864.277 2.722.831.859.55 1.665 1.376 2.42 2.48H67.965Zm7.112 0h-1.542c-.747-1.437-1.598-2.513-2.55-3.229-.95-.72-2-1.081-3.15-1.081-.732 0-1.371.172-1.917.515-.688.436-1.032 1.066-1.032 1.89 0 .697.241 1.332.724 1.905h-1.525v1.045h1.323v7.406l.665.942h.266V5.355h6.176v2.214H69.22c-.193 0-.363.085-.51.257-.146.167-.22.387-.22.662 0 .392.177.922.529 1.589.356.667.623 1 .8 1 .15 0 .226-.11.226-.33 0-.163-.006-.315-.018-.457a6.257 6.257 0 0 1-.041-.684c0-.407.03-.674.089-.802.063-.132.235-.198.516-.198h1.922v4.097l.806 1h.125V5.355H76.4v7.406l.665.942h.267V5.355H80.712l-.06 2.515c-.082-.024-.197-.11-.344-.257-.13-.133-.249-.199-.356-.199-.249 0-.373.243-.373.728 0 .49.099.937.296 1.339.198.402.514.917.95 1.545.435.622.88 1.08 1.334 1.375.459.294.971.441 1.537.441.526 0 1.058-.237 1.595-.713v.574l.718 1h.214V5.355h7.343v1.728c-.632 0-1.253.365-1.862 1.096-.704-.833-1.35-1.25-1.94-1.25-.368 0-.678.157-.931.47-.25.314-.374.709-.374 1.185 0 .264.063.551.19.86.126.31.366.68.718 1.11l1.684 2.09.202-.228c-.894-1.084-1.443-1.82-1.649-2.207a2.527 2.527 0 0 1-.302-1.162c0-.353.11-.66.332-.92.225-.26.466-.39.723-.39.388 0 .775.231 1.163.692-.249.358-.431.643-.546.853l.688.846c.558-.887.963-1.466 1.216-1.736.258-.274.487-.448.689-.522v4.877l.67.941h.25V5.355h5.433v2.56c-.522-.785-1.123-1.178-1.803-1.178-.356 0-.669.152-.938.457-.265.299-.397.71-.397 1.235 0 .594.144 1.084.433 1.471.289.383.676.574 1.163.574.486 0 1-.29 1.542-.868v3.14l.694.979h.237V8.797c.443-.485.862-.728 1.258-.728.277 0 .484.11.623.33.142.221.213.552.213.994 0 .598-.186 1.297-.557 2.096l.664.81c.332-.727.498-1.418.498-2.075 0-.834-.201-1.508-.605-2.023-.399-.515-.844-.772-1.334-.772-.289 0-.542.078-.76.235v-2.31h4.687v7.349l.711 1.022h.22v-8.37h3.535c.167.412.25.799.25 1.162 0 .593-.093 1.059-.279 1.397-.281-.166-.53-.25-.748-.25-.186 0-.326.064-.421.191-.091.123-.136.31-.136.56 0 .426.213 1.01.64 1.75.214.368.518.834.914 1.398.395.559.882 1.216 1.459 1.97l.172-.25a31.163 31.163 0 0 1-.925-1.25 73.614 73.614 0 0 1-1.08-1.596c.253-.299.502-.762.748-1.39.565.27 1.062.405 1.489.405.308 0 .743-.174 1.305-.523v3.854l.664.942h.267v-8.37h2.948v7.348l.712 1.022h.22v-8.37H120V4.31h-2.035l-1.127-1.905c-.546-.922-1.016-1.54-1.412-1.853-.395-.314-1.054-.471-1.975-.471h-.641l.38 1.25h.807c.68 0 1.198.091 1.554.272.356.177.736.591 1.139 1.244l.902 1.463H106.232l-1.127-1.905c-.546-.922-1.017-1.54-1.412-1.853-.396-.314-1.054-.471-1.976-.471h-.64l.379 1.25h.807c.68 0 1.198.091 1.554.272.356.177.736.591 1.139 1.244l.902 1.463H84.526c-.747-1.437-1.597-2.513-2.55-3.229-.95-.72-2-1.081-3.15-1.081-.732 0-1.37.172-1.917.515-.688.436-1.032 1.066-1.032 1.89 0 .697.241 1.332.724 1.905h-1.525Zm4.052 0h-1.94a3.41 3.41 0 0 1-.374-1.537c0-.588.18-1.03.54-1.324.36-.3.902-.449 1.626-.449.957 0 1.864.277 2.722.831.859.55 1.665 1.376 2.42 2.48h-4.994Zm6.163 1.045H81.46l-.124 2.405c-.016.29-.062.59-.137.905-.07.313-.269.806-.593 1.478.411.706.803 1.204 1.175 1.493.375.29.806.434 1.293.434.664 0 1.404-.436 2.218-1.31V9.68c-.68.681-1.208 1.022-1.583 1.022-.392 0-.772-.243-1.14-.728-.367-.49-.551-.978-.551-1.464 0-.554.172-.99.516-1.31a1.796 1.796 0 0 1 1.27-.485c.474 0 .97.322 1.488.964V5.355Zm0 2.846v-.176c-.498-.27-.917-.405-1.257-.405-.368 0-.722.13-1.062.39-.336.255-.504.556-.504.905 0 .245.083.453.249.625.17.171.366.257.587.257.317 0 .726-.157 1.228-.47.506-.32.76-.694.76-1.126Zm14.629.206v-.14c-.305-.338-.694-.507-1.169-.507-.49 0-.872.12-1.145.36-.268.236-.403.505-.403.81 0 .264.07.482.208.654.142.167.336.25.581.25.455 0 1.097-.476 1.928-1.427Zm13.472-3.052h-2.628c.138.465.207.966.207 1.5 0 .388-.053.86-.16 1.42.574.245 1.04.367 1.4.367.36 0 .647-.112.86-.338.214-.23.321-.49.321-.78v-2.17Z" clip-rule="evenodd"/></svg>
